assets/icons/battery/warning.svg

<?xml version="1.0" encoding="UTF-8" standalone="no"?>
<svg viewBox="0 0 24 24" height="24" id="svg7384" version="1.1" width="24" sodipodi:docname="level-0.svg" inkscape:version="1.1 (ce6663b3b7, 2021-05-25)"
   xmlns:inkscape="http://www.inkscape.org/namespaces/inkscape"
   xmlns:sodipodi="http://sodipodi.sourceforge.net/DTD/sodipodi-0.dtd"
   xmlns="http://www.w3.org/2000/svg"
   xmlns:svg="http://www.w3.org/2000/svg"
   xmlns:rdf="http://www.w3.org/1999/02/22-rdf-syntax-ns#"
   xmlns:cc="http://creativecommons.org/ns#"
   xmlns:dc="http://purl.org/dc/elements/1.1/">
   <sodipodi:namedview id="namedview21" pagecolor="#ffffff" bordercolor="#666666" borderopacity="1.0" inkscape:pageshadow="2" inkscape:pageopacity="0.0" inkscape:pagecheckerboard="0" showgrid="true" inkscape:zoom="13.999973" inkscape:cx="26.392908" inkscape:cy="1.0357163" inkscape:window-width="1920" inkscape:window-height="1016" inkscape:window-x="0" inkscape:window-y="27" inkscape:window-maximized="1" inkscape:current-layer="svg7384" width="24px" inkscape:snap-page="true" inkscape:snap-bbox="true" inkscape:bbox-paths="true" inkscape:bbox-nodes="true" inkscape:snap-bbox-edge-midpoints="true" inkscape:snap-bbox-midpoints="true" inkscape:object-paths="true" inkscape:snap-intersection-paths="true" inkscape:snap-smooth-nodes="true" inkscape:snap-midpoints="true">
      <inkscape:grid type="xygrid" id="grid837" />
   </sodipodi:namedview>
   <metadata id="metadata20854">
      <rdf:RDF>
         <cc:Work rdf:about="">
            <dc:format>image/svg+xml</dc:format>
            <dc:type rdf:resource="http://purl.org/dc/dcmitype/StillImage" />
         </cc:Work>
      </rdf:RDF>
   </metadata>
   <defs id="defs7386">
      <linearGradient id="linearGradient5606" inkscape:swatch="solid">
         <stop id="stop5608" offset="0" style="stop-color:#000000;stop-opacity:1;" />
      </linearGradient>
      <linearGradient id="linearGradient4526" inkscape:swatch="solid">
         <stop id="stop4528" offset="0" style="stop-color:#ffffff;stop-opacity:1;" />
      </linearGradient>
      <linearGradient id="linearGradient3600-4" inkscape:swatch="gradient">
         <stop id="stop3602-7" offset="0" style="stop-color:#f4f4f4;stop-opacity:1" />
         <stop id="stop3604-6" offset="1" style="stop-color:#dbdbdb;stop-opacity:1" />
      </linearGradient>
   </defs>
   <path id="path1347-7" style="color:#000000;fill:#808080;stroke-width:4;-inkscape-stroke:none" d="M 10 2 L 10 3 L 8.0058594 3 C 7.5674594 3 7.2201744 3.0069975 6.9277344 3.1171875 C 6.6352944 3.2269675 6.4001587 3.4248612 6.2617188 3.6757812 C 5.9848387 4.1776112 6.0097 4.7920594 6 5.6308594 L 6 5.6328125 L 6.0332031 18.335938 L 6.0332031 18.337891 C 6.0432031 19.176691 6.0181019 19.789186 6.2949219 20.291016 C 6.4333619 20.541936 6.6684975 20.741782 6.9609375 20.851562 C 7.2533775 20.961343 7.6006625 21 8.0390625 21 L 16.033203 21 C 16.471613 21 16.818888 20.961402 17.111328 20.851562 C 17.403768 20.741782 17.636951 20.541936 17.775391 20.291016 C 18.052271 19.789186 18.023503 19.176691 18.033203 18.337891 L 18.033203 18.335938 L 18 5.6328125 L 18 5.6308594 C 17.99 4.7920594 18.018997 4.1776113 17.742188 3.6757812 C 17.603748 3.4248613 17.370565 3.2269675 17.078125 3.1171875 C 16.785685 3.0075175 16.43841 3 16 3 L 14 3 L 14 2 L 10 2 z M 8.0058594 4 L 16 4 C 16.42737 4 16.664162 4.0293344 16.726562 4.0527344 C 16.812062 4.0848344 16.851357 4.1295331 16.867188 4.1582031 C 16.962287 4.3306031 16.9895 4.7758025 17 5.6328125 L 17.033203 18.326172 L 17.033203 18.337891 C 17.023003 19.192271 16.995501 19.636194 16.900391 19.808594 C 16.884591 19.837294 16.845196 19.881992 16.759766 19.914062 C 16.636936 19.960313 16.411393 20 16.033203 20 L 8.0390625 20 C 7.6609225 20 7.4352 19.960063 7.3125 19.914062 C 7.227 19.881963 7.1857419 19.837264 7.1699219 19.808594 C 7.0718219 19.630694 7.0435031 19.188539 7.0332031 18.324219 L 7 5.6328125 C 7.0102 4.7799925 7.0390987 4.3351631 7.1367188 4.1582031 C 7.1525187 4.1295031 7.1938169 4.0848044 7.2792969 4.0527344 C 7.3405969 4.0296344 7.5780994 4 8.0058594 4 z M 11 6 L 11 8.8828125 C 11 9.8743125 11.036677 10.7793 11.107422 11.59375 C 11.178302 12.396388 11.266822 13.19735 11.373047 14 L 12.626953 14 C 12.733203 13.19735 12.821753 12.396388 12.892578 11.59375 C 12.963328 10.7793 13 9.8743125 13 8.8828125 L 13 6 L 11 6 z M 12 16 A 1 1 0 0 0 11 17 A 1 1 0 0 0 12 18 A 1 1 0 0 0 13 17 A 1 1 0 0 0 12 16 z " />
</svg>

<svg height="24" width="24" xmlns="http://www.w3.org/2000/svg"><path style="color:#000;fill:gray;stroke-width:4;-inkscape-stroke:none" d="M10 2v1H8.006c-.439 0-.786.007-1.078.117-.293.11-.528.308-.666.559C5.985 4.178 6.01 4.792 6 5.63v.002l.033 12.703v.002c.01.839-.015 1.451.262 1.953.138.25.373.45.666.56.292.11.64.149 1.078.149h7.994c.439 0 .786-.039 1.078-.148.293-.11.526-.31.664-.561.277-.502.249-1.114.258-1.953v-.002L18 5.633V5.63c-.01-.839.019-1.453-.258-1.955a1.25 1.25 0 0 0-.664-.559C16.786 3.007 16.438 3 16 3h-2V2h-4zM8.006 4H16c.427 0 .664.03.727.053a.259.259 0 0 1 .14.105c.095.173.122.618.133 1.475l.033 12.693v.012c-.01.854-.037 1.298-.133 1.47-.015.03-.055.074-.14.106-.123.046-.349.086-.727.086H8.04c-.378 0-.604-.04-.726-.086-.086-.032-.127-.077-.143-.105-.098-.178-.126-.62-.137-1.485L7 5.633c.01-.853.04-1.298.137-1.475a.266.266 0 0 1 .142-.105c.062-.023.3-.053.727-.053zM11 6v2.883c0 .991.037 1.896.107 2.71.071.803.16 1.604.266 2.407h1.254a55.49 55.49 0 0 0 .266-2.406c.07-.815.107-1.72.107-2.711V6h-2zm1 10a1 1 0 0 0-1 1 1 1 0 0 0 1 1 1 1 0 0 0 1-1 1 1 0 0 0-1-1z"/></svg>
